src/main/resources/cards/fronts/hearts_3.svg

<?xml version="1.0" encoding="UTF-8" standalone="no"?>
<!-- Created with Inkscape (http://www.inkscape.org/) -->

<svg
   xmlns:dc="http://purl.org/dc/elements/1.1/"
   xmlns:cc="http://creativecommons.org/ns#"
   xmlns:rdf="http://www.w3.org/1999/02/22-rdf-syntax-ns#"
   xmlns:svg="http://www.w3.org/2000/svg"
   xmlns="http://www.w3.org/2000/svg"
   xmlns:sodipodi="http://sodipodi.sourceforge.net/DTD/sodipodi-0.dtd"
   xmlns:inkscape="http://www.inkscape.org/namespaces/inkscape"
   width="234"
   height="333.00003"
   id="svg2"
   version="1.1"
   inkscape:version="0.92.4 (5da689c313, 2019-01-14)"
   sodipodi:docname="hearts_3.svg"
   inkscape:export-filename="C:\Users\fowle\OneDrive\Projects\Playing-Cards\fronts\png-096-dpi\hearts_3.png"
   inkscape:export-xdpi="96"
   inkscape:export-ydpi="96">
  <title
     id="title915">Three of Hearts Playing Card</title>
  <defs
     id="defs4" />
  <sodipodi:namedview
     id="base"
     pagecolor="#ffffff"
     bordercolor="#666666"
     borderopacity="1.0"
     inkscape:pageopacity="0.0"
     inkscape:pageshadow="2"
     inkscape:zoom="2.1916676"
     inkscape:cx="156.74936"
     inkscape:cy="166.48677"
     inkscape:document-units="px"
     inkscape:current-layer="layer1"
     showgrid="false"
     inkscape:showpageshadow="false"
     showguides="true"
     inkscape:guide-bbox="true"
     inkscape:snap-global="true"
     inkscape:window-width="1456"
     inkscape:window-height="976"
     inkscape:window-x="436"
     inkscape:window-y="30"
     inkscape:window-maximized="0"
     showborder="false"
     fit-margin-top="0"
     fit-margin-left="0"
     fit-margin-right="0"
     fit-margin-bottom="0">
    <inkscape:grid
       type="xygrid"
       id="grid3767"
       empspacing="5"
       visible="true"
       enabled="true"
       snapvisiblegridlinesonly="true"
       originx="0"
       originy="5.1666068e-06" />
  </sodipodi:namedview>
  <metadata
     id="metadata7">
    <rdf:RDF>
      <cc:Work
         rdf:about="">
        <dc:format>image/svg+xml</dc:format>
        <dc:type
           rdf:resource="http://purl.org/dc/dcmitype/StillImage" />
        <dc:title>Three of Hearts Playing Card</dc:title>
        <dc:date>2020-05-05</dc:date>
        <dc:creator>
          <cc:Agent>
            <dc:title>Daniel S. Fowler</dc:title>
          </cc:Agent>
        </dc:creator>
        <dc:rights>
          <cc:Agent>
            <dc:title>Public Domain</dc:title>
          </cc:Agent>
        </dc:rights>
        <dc:publisher>
          <cc:Agent>
            <dc:title>https://tekeye.uk</dc:title>
          </cc:Agent>
        </dc:publisher>
        <dc:language>en-GB</dc:language>
        <dc:subject>
          <rdf:Bag>
            <rdf:li>three; hearts; playing; card; white; red;</rdf:li>
          </rdf:Bag>
        </dc:subject>
        <dc:description>A three of hearts playing card.</dc:description>
      </cc:Work>
    </rdf:RDF>
  </metadata>
  <g
     inkscape:label="Layer 1"
     inkscape:groupmode="layer"
     id="layer1"
     style="fill:#F00"
     transform="translate(0,-719.36216)">
    <g
       id="g913">
      <rect
         rx="8.9191856"
         ry="8.9457436"
         y="719.74011"
         x="0.37795275"
         height="332.24411"
         width="233.24409"
         id="rect4266"
         style="fill:#ffffff;fill-opacity:1;stroke:#808080;stroke-width:0.75590551;stroke-linecap:butt;stroke-linejoin:miter;stroke-miterlimit:4;stroke-dasharray:none;stroke-opacity:1" />
      <g
         transform="matrix(0.07348588,0,0,0.07370838,-248.01731,933.60062)"
         id="g4233"
         style="fill:none;stroke:#000000;stroke-width:3.18132639;stroke-opacity:1" />
      <g
         clip-path="none"
         style="fill:none;stroke:#000000;stroke-width:3.18132639;stroke-opacity:1"
         id="g4211"
         transform="matrix(0.07348588,0,0,0.07370838,-248.01728,933.60062)" />
      <g
         transform="matrix(0.07348588,0,0,0.07370838,-248.01731,933.60062)"
         id="g4227"
         style="fill:none;stroke:#000000;stroke-width:3.18132639;stroke-opacity:1" />
      <path
         sodipodi:nodetypes="csssssssscssssssssc"
         inkscape:connector-curvature="0"
         id="path3940-9-0"
         d="m 17.194709,780.70209 c -0.884404,-1.89864 -2.026046,-3.67279 -3.382435,-5.25649 -0.87477,-1.02134 -1.836311,-1.96168 -2.810437,-2.88504 -0.760948,-0.72123 -1.5353906,-1.43858 -2.1580074,-2.28628 -0.4206116,-0.57272 -0.7716181,-1.20988 -0.9388522,-1.90447 -0.3028667,-1.25805 0.026675,-2.60668 0.6482558,-3.73677 0.3640614,-0.66182 0.8298315,-1.27049 1.4035868,-1.75432 0.852458,-0.71887 1.964695,-1.1487 3.067706,-1.05487 1.011533,0.086 1.957446,0.60262 2.695611,1.3121 0.653277,0.62794 1.162103,1.41066 1.48543,2.26831 0.323328,-0.85765 0.832154,-1.64037 1.485431,-2.26831 0.738165,-0.70948 1.684078,-1.22609 2.695611,-1.3121 1.102986,-0.0938 2.215223,0.336 3.06769,1.05487 0.573755,0.48383 1.039538,1.0925 1.403587,1.75432 0.621635,1.13009 0.951135,2.47872 0.648256,3.73677 -0.167222,0.69459 -0.518241,1.33175 -0.938862,1.90447 -0.622607,0.8477 -1.397059,1.56505 -2.157985,2.28628 -0.974135,0.92336 -1.935695,1.8637 -2.810434,2.88504 -1.35642,1.5837 -2.498062,3.35785 -3.382467,5.25649"
         style="fill:#ff0000;fill-opacity:1;stroke:none;stroke-width:1" />
      <path
         sodipodi:nodetypes="csssssssscssssssssc"
         inkscape:connector-curvature="0"
         id="path3940-9-6-6"
         d="m 216.78358,991.02223 c -0.88441,1.89861 -2.02605,3.67279 -3.38244,5.25649 -0.87477,1.02131 -1.83631,1.96168 -2.81044,2.88501 -0.76095,0.72126 -1.53539,1.43857 -2.158,2.28627 -0.42062,0.5728 -0.77162,1.2099 -0.93886,1.9045 -0.30286,1.258 0.0267,2.6067 0.64826,3.7368 0.36406,0.6618 0.82983,1.2704 1.40359,1.7543 0.85245,0.7189 1.96469,1.1487 3.0677,1.0549 1.01153,-0.086 1.95745,-0.6027 2.69561,-1.3122 0.65328,-0.6279 1.16211,-1.4106 1.48543,-2.2683 0.32333,0.8577 0.83216,1.6404 1.48543,2.2683 0.73817,0.7095 1.68408,1.2261 2.69561,1.3122 1.10298,0.094 2.21522,-0.336 3.06771,-1.0549 0.57376,-0.4839 1.03953,-1.0925 1.40359,-1.7543 0.62161,-1.1301 0.95112,-2.4788 0.64825,-3.7368 -0.16723,-0.6946 -0.51824,-1.3317 -0.93888,-1.9045 -0.62259,-0.8477 -1.39706,-1.56501 -2.15798,-2.28627 -0.97412,-0.92333 -1.93569,-1.8637 -2.81043,-2.88501 -1.35642,-1.5837 -2.49807,-3.35788 -3.38247,-5.25649"
         style="fill:#ff0000;fill-opacity:1;stroke:none;stroke-width:1" />
      <path
         sodipodi:nodetypes="csssssssscssssssssc"
         inkscape:connector-curvature="0"
         id="path3940-9"
         d="m 116.96746,814.07624 c -2.65321,-5.69589 -6.07814,-11.01838 -10.14737,-15.76947 -2.62425,-3.06398 -5.50887,-5.88504 -8.431277,-8.65507 -2.282813,-2.16375 -4.606141,-4.31575 -6.473991,-6.85891 -1.261866,-1.71812 -2.314886,-3.62962 -2.816557,-5.7134 -0.908631,-3.77411 0.07987,-7.82001 1.944736,-11.21027 1.092153,-1.98547 2.489526,-3.81145 4.210761,-5.26296 2.557404,-2.15664 5.894118,-3.44611 9.203118,-3.16466 3.03457,0.25811 5.87237,1.80791 8.0868,3.93638 1.95983,1.88375 3.48637,4.23197 4.45632,6.80491 0.96996,-2.57294 2.4965,-4.92116 4.45633,-6.80491 2.21443,-2.12847 5.05223,-3.67827 8.08677,-3.93638 3.309,-0.28145 6.64571,1.00802 9.20312,3.16466 1.72126,1.45151 3.1186,3.27749 4.21076,5.26296 1.8649,3.39026 2.8534,7.43616 1.94476,11.21027 -0.50167,2.08378 -1.55472,3.99528 -2.81659,5.7134 -1.86781,2.54316 -4.19117,4.69516 -6.47396,6.85891 -2.9224,2.77003 -5.80706,5.59109 -8.43131,8.65507 -4.06922,4.75109 -7.49415,10.07358 -10.14736,15.76947"
         style="fill:#ff0000;fill-opacity:1;stroke:none;stroke-width:1" />
      <path
         sodipodi:nodetypes="csssssssscssssssssc"
         inkscape:connector-curvature="0"
         id="path3940-9-3"
         d="m 116.96746,914.1987 c -2.65321,-5.69589 -6.07814,-11.01839 -10.14737,-15.76947 -2.62425,-3.06398 -5.50887,-5.88505 -8.431277,-8.65508 -2.282813,-2.16375 -4.606141,-4.31575 -6.473991,-6.85891 -1.261866,-1.71812 -2.314886,-3.62962 -2.816557,-5.7134 -0.908631,-3.77411 0.07987,-7.82001 1.944736,-11.21027 1.092153,-1.98547 2.489526,-3.81145 4.210761,-5.26296 2.557404,-2.15664 5.894118,-3.44611 9.203118,-3.16466 3.03457,0.25811 5.87237,1.80791 8.0868,3.93638 1.95983,1.88375 3.48637,4.23197 4.45632,6.80491 0.96996,-2.57294 2.4965,-4.92116 4.45633,-6.80491 2.21443,-2.12847 5.05223,-3.67827 8.08677,-3.93638 3.309,-0.28145 6.64571,1.00802 9.20312,3.16466 1.72126,1.45151 3.1186,3.27749 4.21076,5.26296 1.8649,3.39026 2.8534,7.43616 1.94476,11.21027 -0.50167,2.08378 -1.55472,3.99528 -2.81659,5.7134 -1.86781,2.54316 -4.19117,4.69516 -6.47396,6.85891 -2.9224,2.77003 -5.80706,5.5911 -8.43131,8.65508 -4.06922,4.75108 -7.49415,10.07358 -10.14736,15.76947"
         style="fill:#ff0000;fill-opacity:1;stroke:none;stroke-width:1" />
      <path
         sodipodi:nodetypes="csssssssscssssssssc"
         inkscape:connector-curvature="0"
         id="path3940-9-6"
         d="m 116.96746,957.64806 c -2.65321,5.6959 -6.07814,11.01839 -10.14737,15.76948 -2.62425,3.06398 -5.50887,5.88504 -8.431277,8.65508 -2.282813,2.16374 -4.606141,4.31575 -6.473991,6.85891 -1.261866,1.71812 -2.314886,3.62962 -2.816557,5.7134 -0.908631,3.77411 0.07987,7.81997 1.944736,11.21027 1.092153,1.9855 2.489526,3.8114 4.210761,5.263 2.557404,2.1566 5.894118,3.4461 9.203118,3.1646 3.03457,-0.2581 5.87237,-1.8079 8.0868,-3.9364 1.95983,-1.8837 3.48637,-4.2319 4.45632,-6.8049 0.96996,2.573 2.4965,4.9212 4.45633,6.8049 2.21443,2.1285 5.05223,3.6783 8.08677,3.9364 3.309,0.2815 6.64571,-1.008 9.20312,-3.1646 1.72126,-1.4516 3.1186,-3.2775 4.21076,-5.263 1.8649,-3.3903 2.85339,-7.43616 1.94476,-11.21027 -0.50167,-2.08378 -1.55472,-3.99528 -2.81659,-5.7134 -1.86781,-2.54316 -4.19117,-4.69517 -6.47396,-6.85891 -2.9224,-2.77004 -5.80706,-5.5911 -8.43131,-8.65508 -4.06922,-4.75109 -7.49415,-10.07358 -10.14736,-15.76948"
         style="fill:#ff0000;fill-opacity:1;stroke:none;stroke-width:1" />
      <g
         id="text3755-0"
         style="font-style:normal;font-variant:normal;font-weight:bold;font-stretch:normal;font-size:3.77201176px;line-height:0%;font-family:'Levenim MT';-inkscape-font-specification:'Sans Bold';letter-spacing:0px;word-spacing:0px;fill:#ff0000;fill-opacity:1;stroke:none;stroke-width:0.99999994"
         transform="scale(1.0092549,0.99082998)"
         aria-label="3">
        <path
           id="path894"
           style="font-size:39.92524338px;line-height:1.25;stroke-width:0.99999994"
           d="m 26.376029,754.4354 q 0,3.97693 -2.787749,6.12135 -2.514823,1.94948 -6.589225,1.94948 -9.2794998,0 -9.2794998,-8.77264 0,-0.40939 0.1364633,-0.77979 0.2924212,-0.17545 0.6628214,-0.17545 h 2.5343171 q 0.3704,0 0.682316,0.17545 0.09747,0.27293 0.155958,0.64333 0.331411,2.41735 1.364633,3.50905 1.15019,1.20868 3.528549,1.20868 1.949475,0 3.177644,-1.05272 1.286653,-1.13069 1.286653,-3.04118 0,-4.05491 -4.425308,-4.75672 -0.545853,-0.078 -0.818779,-0.23394 -0.155958,-0.31191 -0.155958,-3.15814 0,-0.3704 0.175453,-0.70182 1.462106,-0.42888 2.924212,-0.87726 1.540085,-0.70181 1.540085,-2.94371 0,-3.39208 -3.976929,-3.39208 -1.832506,0 -2.865727,0.89676 -0.545853,0.48737 -1.130696,1.65705 -0.428884,0.89676 -0.857769,0.89676 H 9.1426718 q -0.9552426,0 -0.9552426,-0.85777 0,-3.25562 2.5538118,-5.14661 2.30038,-1.69605 5.653477,-1.69605 3.85996,0 6.296803,1.61807 2.865728,1.89099 2.865728,5.57549 0,4.44481 -4.386318,6.04338 5.205098,2.2029 5.205098,7.29103 z" />
      </g>
      <g
         id="text3755-2-2"
         style="font-style:normal;font-variant:normal;font-weight:bold;font-stretch:normal;font-size:3.77201176px;line-height:0%;font-family:'Levenim MT';-inkscape-font-specification:'Sans Bold';letter-spacing:0px;word-spacing:0px;fill:#ff0000;fill-opacity:1;stroke:none;stroke-width:1"
         transform="scale(-1.0092549,-0.99082997)"
         aria-label="3">
        <path
           id="path897"
           style="font-size:39.92524338px;line-height:1.25;stroke-width:1"
           d="m -205.4782,-1033.6861 q 0,3.977 -2.78775,6.1214 -2.51482,1.9495 -6.58923,1.9495 -9.2795,0 -9.2795,-8.7727 0,-0.4094 0.13647,-0.7798 0.29242,-0.1754 0.66282,-0.1754 h 2.53432 q 0.3704,0 0.68231,0.1754 0.0975,0.273 0.15596,0.6434 0.33141,2.4173 1.36463,3.509 1.15019,1.2087 3.52855,1.2087 1.94948,0 3.17765,-1.0527 1.28665,-1.1307 1.28665,-3.0412 0,-4.0549 -4.42531,-4.7567 -0.54585,-0.078 -0.81878,-0.234 -0.15596,-0.3119 -0.15596,-3.1581 0,-0.3704 0.17546,-0.7018 1.4621,-0.4289 2.92421,-0.8773 1.54008,-0.7018 1.54008,-2.9437 0,-3.3921 -3.97692,-3.3921 -1.83251,0 -2.86573,0.8968 -0.54586,0.4874 -1.1307,1.657 -0.42888,0.8968 -0.85777,0.8968 h -2.51482 q -0.95524,0 -0.95524,-0.8578 0,-3.2556 2.55381,-5.1466 2.30038,-1.696 5.65348,-1.696 3.85996,0 6.2968,1.618 2.86573,1.891 2.86573,5.5755 0,4.4448 -4.38632,6.0434 5.2051,2.2029 5.2051,7.291 z" />
      </g>
    </g>
  </g>
</svg>

<svg width="234" height="333.00003" xmlns="http://www.w3.org/2000/svg">
    <g id="layer1" transform="matrix(1 0 0 1 0 -719.3622)">
        <g id="g913">
            <path id="rect4266" fill="#ffffff" stroke="#808080" stroke-width="0.7559055" d="M 9.297138 719.7401 L 224.70288 719.7401 C 229.6288 719.7401 233.62206 723.74524 233.62206 728.68585 L 233.62206 1043.0385 C 233.62207 1045.411 232.68237 1047.6864 231.0097 1049.3641 C 229.33702 1051.0417 227.06839 1051.9843 224.70288 1051.9843 L 9.297138 1051.9843 C 6.9316134 1051.9843 4.662975 1051.0417 2.9903018 1049.3641 C 1.3176281 1047.6864 0.3779376 1045.411 0.37795275 1043.0385 L 0.37795275 728.68585 C 0.37795484 723.74524 4.3712096 719.7401 9.297138 719.7401 Z"/>
            <g id="g4233" transform="matrix(0.07348588 0 0 0.07370838 -248.0173 933.60065)"/>
            <g id="g4211" transform="matrix(0.07348588 0 0 0.07370838 -248.01726 933.60065)"/>
            <g id="g4227" transform="matrix(0.07348588 0 0 0.07370838 -248.0173 933.60065)"/>
            <path id="path3940-9-0" fill="#ff0000" stroke="none" d="M 17.19471 780.7021 C 16.310305 778.80347 15.168663 777.0293 13.812274 775.4456 C 12.937504 774.42426 11.975963 773.48395 11.001837 772.56055 C 10.240889 771.83936 9.466447 771.12195 8.843829 770.2743 C 8.423218 769.70154 8.072211 769.0644 7.9049773 768.3698 C 7.602111 767.11176 7.9316525 765.7631 8.553233 764.6331 C 8.9172945 763.9712 9.383064 763.3625 9.95682 762.87866 C 10.809278 762.15985 11.921515 761.73 13.024526 761.8239 C 14.036058 761.90985 14.981971 762.4265 15.720137 763.1359 C 16.373413 763.7639 16.88224 764.5467 17.205566 765.4042 C 17.528894 764.5467 18.037722 763.7639 18.690998 763.1359 C 19.429163 762.4265 20.375076 761.90985 21.386608 761.8239 C 22.489595 761.73 23.60183 762.15985 24.4543 762.87866 C 25.028053 763.3625 25.493837 763.9712 25.857883 764.6331 C 26.47952 765.7631 26.809021 767.11176 26.506144 768.3698 C 26.33892 769.0644 25.987902 769.70154 25.56728 770.2743 C 24.944674 771.12195 24.170221 771.83936 23.409296 772.56055 C 22.43516 773.48395 21.4736 774.42426 20.598862 775.4456 C 19.242441 777.0293 18.1008 778.80347 17.216394 780.7021"/>
            <path id="path3940-9-6-6" fill="#ff0000" stroke="none" d="M 216.78358 991.0222 C 215.89917 992.92084 214.75752 994.695 213.40112 996.27875 C 212.52637 997.30005 211.56483 998.2404 210.5907 999.16376 C 209.82974 999.8851 209.05531 1000.60223 208.43271 1001.4501 C 208.01208 1002.0228 207.6611 1002.6599 207.49384 1003.3545 C 207.19098 1004.6125 207.52054 1005.96124 208.1421 1007.0913 C 208.50616 1007.7531 208.97192 1008.3617 209.54568 1008.84564 C 210.39815 1009.5646 211.51038 1009.9943 212.61339 1009.9005 C 213.62491 1009.8145 214.57085 1009.2978 215.309 1008.5883 C 215.96228 1007.9604 216.47112 1007.1777 216.79443 1006.32 C 217.11775 1007.1777 217.62659 1007.9604 218.27986 1008.5883 C 219.01804 1009.2978 219.96394 1009.8144 220.97548 1009.9005 C 222.07845 1009.99457 223.19069 1009.5646 224.0432 1008.84564 C 224.61694 1008.3617 225.0827 1007.7531 225.44676 1007.0913 C 226.06837 1005.96124 226.39787 1004.6125 226.09502 1003.3545 C 225.9278 1002.6599 225.57678 1002.0228 225.15614 1001.4501 C 224.53354 1000.60223 223.75908 999.8851 222.99815 999.16376 C 222.02403 998.2404 221.06247 997.30005 220.18773 996.27875 C 218.83131 994.695 217.68967 992.92084 216.80527 991.0222"/>
            <path id="path3940-9" fill="#ff0000" stroke="none" d="M 116.96747 814.07623 C 114.31425 808.3803 110.88932 803.0578 106.8201 798.3068 C 104.19584 795.2428 101.31122 792.42175 98.38881 789.6517 C 96.106 787.488 93.78267 785.33594 91.914825 782.7928 C 90.65296 781.0747 89.59994 779.16315 89.098274 777.07947 C 88.18964 773.3053 89.17815 769.25946 91.043 765.8692 C 92.135155 763.88367 93.53253 762.0577 95.25376 760.60614 C 97.81117 758.4495 101.14788 757.16003 104.45688 757.44147 C 107.49145 757.69965 110.32924 759.2494 112.543686 761.3778 C 114.50351 763.26166 116.03005 765.6099 117 768.18274 C 117.96996 765.6099 119.4965 763.26166 121.45633 761.3778 C 123.67076 759.2494 126.50857 757.69965 129.5431 757.44147 C 132.8521 757.16003 136.18881 758.4495 138.74622 760.60614 C 140.46748 762.0577 141.86482 763.88367 142.95699 765.8692 C 144.82188 769.25946 145.81038 773.3053 144.90173 777.07947 C 144.40007 779.16315 143.34702 781.0747 142.08514 782.7928 C 140.21735 785.33594 137.89398 787.488 135.61119 789.6517 C 132.6888 792.42175 129.80412 795.2428 127.17988 798.3068 C 123.11066 803.0578 119.68574 808.3803 117.03252 814.07623"/>
            <path id="path3940-9-3" fill="#ff0000" stroke="none" d="M 116.96747 914.19867 C 114.31425 908.5028 110.88932 903.1803 106.8201 898.42926 C 104.19584 895.3652 101.31122 892.5442 98.38881 889.7742 C 96.106 887.6104 93.78267 885.4584 91.914825 882.9152 C 90.65296 881.19714 89.59994 879.28564 89.098274 877.20184 C 88.18964 873.42773 89.17815 869.38184 91.043 865.9916 C 92.135155 864.00616 93.53253 862.1802 95.25376 860.7286 C 97.81117 858.57196 101.14788 857.2825 104.45688 857.56396 C 107.49145 857.8221 110.32924 859.3718 112.543686 861.5003 C 114.50351 863.38416 116.03005 865.7323 117 868.30524 C 117.96996 865.7323 119.4965 863.38416 121.45633 861.5003 C 123.67076 859.3718 126.50857 857.8221 129.5431 857.56396 C 132.8521 857.2825 136.18881 858.57196 138.74622 860.7286 C 140.46748 862.1802 141.86482 864.00616 142.95699 865.9916 C 144.82188 869.38184 145.81038 873.42773 144.90173 877.20184 C 144.40007 879.28564 143.34702 881.19714 142.08514 882.9152 C 140.21735 885.4584 137.89398 887.6104 135.61119 889.7742 C 132.6888 892.5442 129.80412 895.3652 127.17988 898.42926 C 123.11066 903.1803 119.68574 908.5028 117.03252 914.19867"/>
            <path id="path3940-9-6" fill="#ff0000" stroke="none" d="M 116.96747 957.6481 C 114.31425 963.3439 110.88932 968.6665 106.8201 973.41754 C 104.19584 976.4815 101.31122 979.30255 98.38881 982.07263 C 96.106 984.2364 93.78267 986.3884 91.914825 988.9315 C 90.65296 990.64966 89.59994 992.56116 89.098274 994.64496 C 88.18964 998.41907 89.17815 1002.46484 91.043 1005.8552 C 92.135155 1007.8407 93.53253 1009.6666 95.25376 1011.1182 C 97.81117 1013.2748 101.14788 1014.5643 104.45688 1014.28284 C 107.49145 1014.02466 110.32924 1012.4749 112.543686 1010.3464 C 114.50351 1008.4627 116.03005 1006.1145 117 1003.54144 C 117.96996 1006.1145 119.4965 1008.4627 121.45633 1010.3464 C 123.67076 1012.4749 126.50857 1014.02466 129.5431 1014.28284 C 132.8521 1014.5643 136.18881 1013.2748 138.74622 1011.1182 C 140.46748 1009.6666 141.86482 1007.8407 142.95699 1005.8552 C 144.82188 1002.46484 145.81036 998.41907 144.90173 994.64496 C 144.40007 992.56116 143.34702 990.64966 142.08514 988.9315 C 140.21735 986.3884 137.89398 984.2364 135.61119 982.07263 C 132.6888 979.30255 129.80412 976.4815 127.17988 973.41754 C 123.11066 968.6665 119.68574 963.3439 117.03252 957.6481"/>
            <g id="text3755-0" transform="matrix(1.0092549 0 0 0.99083 0 0)">
                <path id="path894" fill="#ff0000" stroke="none" d="M 26.376028 754.4354 Q 26.376028 758.41235 23.58828 760.55676 Q 21.073458 762.5062 16.999056 762.5062 Q 7.7195554 762.5062 7.7195554 753.7335 Q 7.7195554 753.3242 7.8560185 752.95386 Q 8.148439 752.77826 8.51884 752.77826 L 11.053157 752.77826 Q 11.423557 752.77826 11.735473 752.95386 Q 11.832943 753.2267 11.891431 753.59705 Q 12.222841 756.01447 13.256064 757.1062 Q 14.406254 758.3148 16.784613 758.3148 Q 18.734089 758.3148 19.962257 757.26215 Q 21.24891 756.1314 21.24891 754.22095 Q 21.24891 750.1661 16.823603 749.46423 Q 16.277748 749.3862 16.004824 749.23035 Q 15.848864 748.9184 15.848864 746.07214 Q 15.848864 745.7018 16.024319 745.37036 Q 17.486423 744.94147 18.94853 744.49316 Q 20.488615 743.79126 20.488615 741.5493 Q 20.488615 738.1573 16.511686 738.1573 Q 14.679179 738.1573 13.645958 739.0541 Q 13.100106 739.5415 12.515263 740.7111 Q 12.086379 741.60785 11.657494 741.60785 L 9.142672 741.60785 Q 8.187429 741.60785 8.187429 740.75006 Q 8.187429 737.49445 10.741241 735.60345 Q 13.041622 733.9074 16.394718 733.9074 Q 20.254679 733.9074 22.69152 735.5255 Q 25.557247 737.4165 25.557247 741.101 Q 25.557247 745.54584 21.17093 747.1443 Q 26.376028 749.3473 26.376028 754.4354 Z"/>
            </g>
            <g id="text3755-2-2" transform="matrix(-1.0092549 0 0 -0.99082994 0 0)">
                <path id="path897" fill="#ff0000" stroke="none" d="M -205.4782 -1033.6862 Q -205.4782 -1029.7091 -208.26596 -1027.5647 Q -210.78078 -1025.6152 -214.8552 -1025.6152 Q -224.13467 -1025.6152 -224.13467 -1034.388 Q -224.13467 -1034.7972 -223.99821 -1035.1677 Q -223.70581 -1035.3431 -223.33539 -1035.3431 L -220.80107 -1035.3431 Q -220.43066 -1035.3431 -220.11876 -1035.1677 Q -220.02126 -1034.8947 -219.9628 -1034.5243 Q -219.6314 -1032.107 -218.59818 -1031.0153 Q -217.44798 -1029.8066 -215.06964 -1029.8066 Q -213.12012 -1029.8066 -211.89195 -1030.8593 Q -210.60532 -1031.99 -210.60532 -1033.9005 Q -210.60532 -1037.9554 -215.03062 -1038.6572 Q -215.57648 -1038.7352 -215.84941 -1038.8912 Q -216.00537 -1039.2031 -216.00537 -1042.0493 Q -216.00537 -1042.4197 -215.82991 -1042.7511 Q -214.3678 -1043.18 -212.9057 -1043.6284 Q -211.36562 -1044.3302 -211.36562 -1046.5721 Q -211.36562 -1049.9642 -215.34254 -1049.9642 Q -217.17503 -1049.9642 -218.20828 -1049.0674 Q -218.75414 -1048.58 -219.33897 -1047.4104 Q -219.76785 -1046.5135 -220.19675 -1046.5135 L -222.71156 -1046.5135 Q -223.6668 -1046.5135 -223.6668 -1047.3715 Q -223.6668 -1050.627 -221.11299 -1052.518 Q -218.8126 -1054.214 -215.45952 -1054.214 Q -211.59955 -1054.214 -209.1627 -1052.596 Q -206.29698 -1050.705 -206.29698 -1047.0205 Q -206.29698 -1042.5757 -210.6833 -1040.977 Q -205.4782 -1038.7742 -205.4782 -1033.6862 Z"/>
            </g>
        </g>
    </g>
</svg>
